images/50140387.svg

<?xml version="1.0" encoding="UTF-8"?>
<svg xmlns="http://www.w3.org/2000/svg" xmlns:xlink="http://www.w3.org/1999/xlink" width="300pt" height="300pt" viewBox="0 0 300 300" version="1.1">
<defs>
<g>
<symbol overflow="visible" id="glyph0-0">
<path style="stroke:none;" d="M 0.453125 1.59375 L 0.453125 -6.34375 L 4.953125 -6.34375 L 4.953125 1.59375 Z M 0.953125 1.09375 L 4.453125 1.09375 L 4.453125 -5.84375 L 0.953125 -5.84375 Z M 0.953125 1.09375 "/>
</symbol>
<symbol overflow="visible" id="glyph0-1">
<path style="stroke:none;" d="M 0.890625 -6.5625 L 2.078125 -6.5625 L 4.984375 -1.078125 L 4.984375 -6.5625 L 5.84375 -6.5625 L 5.84375 0 L 4.65625 0 L 1.75 -5.484375 L 1.75 0 L 0.890625 0 Z M 0.890625 -6.5625 "/>
</symbol>
<symbol overflow="visible" id="glyph0-2">
<path style="stroke:none;" d="M 5.796875 -6.0625 L 5.796875 -5.125 C 5.492188 -5.394531 5.171875 -5.597656 4.828125 -5.734375 C 4.492188 -5.878906 4.140625 -5.953125 3.765625 -5.953125 C 3.015625 -5.953125 2.4375 -5.722656 2.03125 -5.265625 C 1.632812 -4.804688 1.4375 -4.144531 1.4375 -3.28125 C 1.4375 -2.414062 1.632812 -1.753906 2.03125 -1.296875 C 2.4375 -0.835938 3.015625 -0.609375 3.765625 -0.609375 C 4.140625 -0.609375 4.492188 -0.675781 4.828125 -0.8125 C 5.171875 -0.945312 5.492188 -1.15625 5.796875 -1.4375 L 5.796875 -0.5 C 5.484375 -0.289062 5.15625 -0.132812 4.8125 -0.03125 C 4.46875 0.0703125 4.097656 0.125 3.703125 0.125 C 2.710938 0.125 1.929688 -0.175781 1.359375 -0.78125 C 0.785156 -1.394531 0.5 -2.226562 0.5 -3.28125 C 0.5 -4.332031 0.785156 -5.160156 1.359375 -5.765625 C 1.929688 -6.378906 2.710938 -6.6875 3.703125 -6.6875 C 4.097656 -6.6875 4.46875 -6.632812 4.8125 -6.53125 C 5.164062 -6.425781 5.492188 -6.269531 5.796875 -6.0625 Z M 5.796875 -6.0625 "/>
</symbol>
<symbol overflow="visible" id="glyph0-3">
<path style="stroke:none;" d="M 0.84375 -6.84375 L 1.65625 -6.84375 L 1.65625 0 L 0.84375 0 Z M 0.84375 -6.84375 "/>
</symbol>
<symbol overflow="visible" id="glyph0-4">
<path style="stroke:none;" d="M 3.546875 -5.953125 C 2.898438 -5.953125 2.382812 -5.710938 2 -5.234375 C 1.625 -4.753906 1.4375 -4.101562 1.4375 -3.28125 C 1.4375 -2.445312 1.625 -1.789062 2 -1.3125 C 2.382812 -0.832031 2.898438 -0.59375 3.546875 -0.59375 C 4.191406 -0.59375 4.703125 -0.832031 5.078125 -1.3125 C 5.453125 -1.789062 5.640625 -2.445312 5.640625 -3.28125 C 5.640625 -4.101562 5.453125 -4.753906 5.078125 -5.234375 C 4.703125 -5.710938 4.191406 -5.953125 3.546875 -5.953125 Z M 3.546875 -6.6875 C 4.460938 -6.6875 5.195312 -6.375 5.75 -5.75 C 6.300781 -5.132812 6.578125 -4.3125 6.578125 -3.28125 C 6.578125 -2.238281 6.300781 -1.410156 5.75 -0.796875 C 5.195312 -0.179688 4.460938 0.125 3.546875 0.125 C 2.617188 0.125 1.878906 -0.179688 1.328125 -0.796875 C 0.773438 -1.410156 0.5 -2.238281 0.5 -3.28125 C 0.5 -4.3125 0.773438 -5.132812 1.328125 -5.75 C 1.878906 -6.375 2.617188 -6.6875 3.546875 -6.6875 Z M 3.546875 -6.6875 "/>
</symbol>
<symbol overflow="visible" id="glyph0-5">
<path style="stroke:none;" d="M 0.890625 -6.5625 L 1.765625 -6.5625 L 1.765625 -3.875 L 5 -3.875 L 5 -6.5625 L 5.890625 -6.5625 L 5.890625 0 L 5 0 L 5 -3.125 L 1.765625 -3.125 L 1.765625 0 L 0.890625 0 Z M 0.890625 -6.5625 "/>
</symbol>
</g>
</defs>
<g id="surface3317">
<rect x="0" y="0" width="300" height="300" style="fill:rgb(100%,100%,100%);fill-opacity:1;stroke:none;"/>
<path style="fill:none;stroke-width:1.2;stroke-linecap:butt;stroke-linejoin:miter;stroke:rgb(0%,0%,0%);stroke-opacity:1;stroke-miterlimit:10;" d="M 114.863281 185.976562 L 113.617188 207.90625 "/>
<path style="fill:none;stroke-width:1.2;stroke-linecap:butt;stroke-linejoin:miter;stroke:rgb(0%,0%,0%);stroke-opacity:1;stroke-miterlimit:10;" d="M 109.578125 187.875 L 108.582031 205.417969 "/>
<path style="fill:none;stroke-width:1.2;stroke-linecap:butt;stroke-linejoin:miter;stroke:rgb(0%,0%,0%);stroke-opacity:1;stroke-miterlimit:10;" d="M 114.863281 185.976562 L 133.335938 174.097656 "/>
<path style="fill:none;stroke-width:1.2;stroke-linecap:butt;stroke-linejoin:miter;stroke:rgb(0%,0%,100%);stroke-opacity:1;stroke-miterlimit:10;" d="M 94.394531 178.015625 L 104.628906 181.996094 "/>
<path style="fill:none;stroke-width:1.2;stroke-linecap:butt;stroke-linejoin:miter;stroke:rgb(0%,0%,0%);stroke-opacity:1;stroke-miterlimit:10;" d="M 104.628906 181.996094 L 114.863281 185.976562 "/>
<path style="fill:none;stroke-width:1.2;stroke-linecap:butt;stroke-linejoin:miter;stroke:rgb(0%,0%,0%);stroke-opacity:1;stroke-miterlimit:10;" d="M 113.617188 207.90625 L 92.375 213.496094 "/>
<path style="fill:none;stroke-width:1.2;stroke-linecap:butt;stroke-linejoin:miter;stroke:rgb(0%,0%,0%);stroke-opacity:1;stroke-miterlimit:10;" d="M 92.375 213.496094 L 84.414062 233.960938 "/>
<path style="fill:none;stroke-width:1.2;stroke-linecap:butt;stroke-linejoin:miter;stroke:rgb(0%,0%,0%);stroke-opacity:1;stroke-miterlimit:10;" d="M 92.375 213.496094 L 86.4375 204.257812 "/>
<path style="fill:none;stroke-width:1.2;stroke-linecap:butt;stroke-linejoin:miter;stroke:rgb(0%,0%,100%);stroke-opacity:1;stroke-miterlimit:10;" d="M 86.4375 204.257812 L 80.496094 195.019531 "/>
<path style="fill:none;stroke-width:1.2;stroke-linecap:butt;stroke-linejoin:miter;stroke:rgb(0%,0%,0%);stroke-opacity:1;stroke-miterlimit:10;" d="M 95.535156 208.851562 L 90.785156 201.460938 "/>
<path style="fill:none;stroke-width:1.2;stroke-linecap:butt;stroke-linejoin:miter;stroke:rgb(0%,0%,100%);stroke-opacity:1;stroke-miterlimit:10;" d="M 90.785156 201.460938 L 86.03125 194.074219 "/>
<path style="fill:none;stroke-width:1.2;stroke-linecap:butt;stroke-linejoin:miter;stroke:rgb(0%,0%,100%);stroke-opacity:1;stroke-miterlimit:10;" d="M 80.496094 195.019531 L 94.394531 178.015625 "/>
<path style=" stroke:none;fill-rule:nonzero;fill:rgb(100%,100%,100%);fill-opacity:1;" d="M 77.496094 189.519531 L 84.496094 189.519531 L 84.496094 200.519531 L 77.496094 200.519531 Z M 77.496094 189.519531 "/>
<g style="fill:rgb(0%,0%,100%);fill-opacity:1;">
  <use xlink:href="#glyph0-1" x="77.496094" y="198.182617"/>
</g>
<path style="fill:none;stroke-width:1.2;stroke-linecap:butt;stroke-linejoin:miter;stroke:rgb(0%,0%,100%);stroke-opacity:1;stroke-miterlimit:10;" d="M 94.394531 178.015625 L 91.601562 167.394531 "/>
<path style="fill:none;stroke-width:1.2;stroke-linecap:butt;stroke-linejoin:miter;stroke:rgb(0%,0%,0%);stroke-opacity:1;stroke-miterlimit:10;" d="M 91.601562 167.394531 L 88.804688 156.773438 "/>
<path style=" stroke:none;fill-rule:nonzero;fill:rgb(100%,100%,100%);fill-opacity:1;" d="M 91.394531 172.515625 L 98.394531 172.515625 L 98.394531 183.515625 L 91.394531 183.515625 Z M 91.394531 172.515625 "/>
<g style="fill:rgb(0%,0%,100%);fill-opacity:1;">
  <use xlink:href="#glyph0-1" x="91.394531" y="181.178711"/>
</g>
<path style="fill:none;stroke-width:1.2;stroke-linecap:butt;stroke-linejoin:miter;stroke:rgb(0%,0%,0%);stroke-opacity:1;stroke-miterlimit:10;" d="M 88.804688 156.773438 L 104.40625 141.316406 "/>
<path style="fill:none;stroke-width:1.2;stroke-linecap:butt;stroke-linejoin:miter;stroke:rgb(0%,0%,0%);stroke-opacity:1;stroke-miterlimit:10;" d="M 86.726562 151.558594 L 99.207031 139.191406 "/>
<path style="fill:none;stroke-width:1.2;stroke-linecap:butt;stroke-linejoin:miter;stroke:rgb(0%,0%,0%);stroke-opacity:1;stroke-miterlimit:10;" d="M 67.617188 150.996094 L 88.804688 156.773438 "/>
<path style="fill:none;stroke-width:1.2;stroke-linecap:butt;stroke-linejoin:miter;stroke:rgb(0%,0%,0%);stroke-opacity:1;stroke-miterlimit:10;" d="M 104.40625 141.316406 L 98.816406 120.074219 "/>
<path style="fill:none;stroke-width:1.2;stroke-linecap:butt;stroke-linejoin:miter;stroke:rgb(0%,0%,0%);stroke-opacity:1;stroke-miterlimit:10;" d="M 98.816406 120.074219 L 77.628906 114.296875 "/>
<path style="fill:none;stroke-width:1.2;stroke-linecap:butt;stroke-linejoin:miter;stroke:rgb(0%,0%,0%);stroke-opacity:1;stroke-miterlimit:10;" d="M 95.335938 124.484375 L 78.386719 119.859375 "/>
<path style="fill:none;stroke-width:1.2;stroke-linecap:butt;stroke-linejoin:miter;stroke:rgb(0%,0%,0%);stroke-opacity:1;stroke-miterlimit:10;" d="M 77.628906 114.296875 L 72.039062 93.054688 "/>
<path style="fill:none;stroke-width:1.2;stroke-linecap:butt;stroke-linejoin:miter;stroke:rgb(0%,0%,0%);stroke-opacity:1;stroke-miterlimit:10;" d="M 77.628906 114.296875 L 62.027344 129.757812 "/>
<path style="fill:none;stroke-width:1.2;stroke-linecap:butt;stroke-linejoin:miter;stroke:rgb(0%,0%,0%);stroke-opacity:1;stroke-miterlimit:10;" d="M 72.039062 93.054688 L 50.847656 87.277344 "/>
<path style="fill:none;stroke-width:1.2;stroke-linecap:butt;stroke-linejoin:miter;stroke:rgb(0%,0%,0%);stroke-opacity:1;stroke-miterlimit:10;" d="M 68.558594 97.464844 L 51.609375 92.839844 "/>
<path style="fill:none;stroke-width:1.2;stroke-linecap:butt;stroke-linejoin:miter;stroke:rgb(0%,0%,0%);stroke-opacity:1;stroke-miterlimit:10;" d="M 50.847656 87.277344 L 48.054688 76.65625 "/>
<path style="fill:none;stroke-width:1.2;stroke-linecap:butt;stroke-linejoin:miter;stroke:rgb(0%,80%,0%);stroke-opacity:1;stroke-miterlimit:10;" d="M 48.054688 76.65625 L 45.261719 66.039062 "/>
<path style="fill:none;stroke-width:1.2;stroke-linecap:butt;stroke-linejoin:miter;stroke:rgb(0%,0%,0%);stroke-opacity:1;stroke-miterlimit:10;" d="M 50.847656 87.277344 L 35.25 102.738281 "/>
<path style=" stroke:none;fill-rule:nonzero;fill:rgb(100%,100%,100%);fill-opacity:1;" d="M 40.261719 60.539062 L 50.261719 60.539062 L 50.261719 71.539062 L 40.261719 71.539062 Z M 40.261719 60.539062 "/>
<g style="fill:rgb(0%,80%,0%);fill-opacity:1;">
  <use xlink:href="#glyph0-2" x="40.261719" y="69.202148"/>
  <use xlink:href="#glyph0-3" x="46.775391" y="69.202148"/>
</g>
<path style="fill:none;stroke-width:1.2;stroke-linecap:butt;stroke-linejoin:miter;stroke:rgb(0%,0%,0%);stroke-opacity:1;stroke-miterlimit:10;" d="M 35.25 102.738281 L 40.839844 123.976562 "/>
<path style="fill:none;stroke-width:1.2;stroke-linecap:butt;stroke-linejoin:miter;stroke:rgb(0%,0%,0%);stroke-opacity:1;stroke-miterlimit:10;" d="M 40.804688 103.546875 L 45.277344 120.539062 "/>
<path style="fill:none;stroke-width:1.2;stroke-linecap:butt;stroke-linejoin:miter;stroke:rgb(0%,0%,0%);stroke-opacity:1;stroke-miterlimit:10;" d="M 62.027344 129.757812 L 40.839844 123.976562 "/>
<path style="fill:none;stroke-width:1.2;stroke-linecap:butt;stroke-linejoin:miter;stroke:rgb(0%,0%,0%);stroke-opacity:1;stroke-miterlimit:10;" d="M 62.027344 129.757812 L 67.617188 150.996094 "/>
<path style="fill:none;stroke-width:1.2;stroke-linecap:butt;stroke-linejoin:miter;stroke:rgb(0%,0%,0%);stroke-opacity:1;stroke-miterlimit:10;" d="M 67.585938 130.566406 L 72.054688 147.558594 "/>
<path style="fill:none;stroke-width:1.2;stroke-linecap:butt;stroke-linejoin:miter;stroke:rgb(0%,0%,0%);stroke-opacity:1;stroke-miterlimit:10;" d="M 135.917969 173.976562 L 135.390625 163.007812 "/>
<path style="fill:none;stroke-width:1.2;stroke-linecap:butt;stroke-linejoin:miter;stroke:rgb(100%,0%,0%);stroke-opacity:1;stroke-miterlimit:10;" d="M 135.390625 163.007812 L 134.867188 152.039062 "/>
<path style="fill:none;stroke-width:1.2;stroke-linecap:butt;stroke-linejoin:miter;stroke:rgb(0%,0%,0%);stroke-opacity:1;stroke-miterlimit:10;" d="M 130.757812 174.222656 L 130.230469 163.253906 "/>
<path style="fill:none;stroke-width:1.2;stroke-linecap:butt;stroke-linejoin:miter;stroke:rgb(100%,0%,0%);stroke-opacity:1;stroke-miterlimit:10;" d="M 130.230469 163.253906 L 129.703125 152.285156 "/>
<path style="fill:none;stroke-width:1.2;stroke-linecap:butt;stroke-linejoin:miter;stroke:rgb(0%,0%,0%);stroke-opacity:1;stroke-miterlimit:10;" d="M 133.335938 174.097656 L 143.097656 179.128906 "/>
<path style="fill:none;stroke-width:1.2;stroke-linecap:butt;stroke-linejoin:miter;stroke:rgb(0%,0%,100%);stroke-opacity:1;stroke-miterlimit:10;" d="M 143.097656 179.128906 L 152.859375 184.15625 "/>
<path style=" stroke:none;fill-rule:nonzero;fill:rgb(100%,100%,100%);fill-opacity:1;" d="M 128.285156 146.660156 L 136.285156 146.660156 L 136.285156 157.660156 L 128.285156 157.660156 Z M 128.285156 146.660156 "/>
<g style="fill:rgb(100%,0%,0%);fill-opacity:1;">
  <use xlink:href="#glyph0-4" x="128.285156" y="155.323242"/>
</g>
<path style="fill:none;stroke-width:1.2;stroke-linecap:butt;stroke-linejoin:miter;stroke:rgb(0%,0%,100%);stroke-opacity:1;stroke-miterlimit:10;" d="M 152.859375 184.15625 L 162.097656 178.21875 "/>
<path style="fill:none;stroke-width:1.2;stroke-linecap:butt;stroke-linejoin:miter;stroke:rgb(0%,0%,0%);stroke-opacity:1;stroke-miterlimit:10;" d="M 162.097656 178.21875 L 171.332031 172.277344 "/>
<path style=" stroke:none;fill-rule:nonzero;fill:rgb(100%,100%,100%);fill-opacity:1;" d="M 145.859375 178.65625 L 159.859375 178.65625 L 159.859375 189.65625 L 145.859375 189.65625 Z M 145.859375 178.65625 "/>
<g style="fill:rgb(0%,0%,100%);fill-opacity:1;">
  <use xlink:href="#glyph0-1" x="145.859375" y="187.319336"/>
  <use xlink:href="#glyph0-5" x="152.836914" y="187.319336"/>
</g>
<path style="fill:none;stroke-width:1.2;stroke-linecap:butt;stroke-linejoin:miter;stroke:rgb(0%,0%,0%);stroke-opacity:1;stroke-miterlimit:10;" d="M 171.332031 172.277344 L 190.859375 182.335938 "/>
<path style="fill:none;stroke-width:1.2;stroke-linecap:butt;stroke-linejoin:miter;stroke:rgb(0%,0%,0%);stroke-opacity:1;stroke-miterlimit:10;" d="M 175.652344 168.691406 L 191.273438 176.738281 "/>
<path style="fill:none;stroke-width:1.2;stroke-linecap:butt;stroke-linejoin:miter;stroke:rgb(0%,0%,0%);stroke-opacity:1;stroke-miterlimit:10;" d="M 171.332031 172.277344 L 170.28125 150.339844 "/>
<path style="fill:none;stroke-width:1.2;stroke-linecap:butt;stroke-linejoin:miter;stroke:rgb(0%,0%,0%);stroke-opacity:1;stroke-miterlimit:10;" d="M 190.859375 182.335938 L 209.332031 170.457031 "/>
<path style="fill:none;stroke-width:1.2;stroke-linecap:butt;stroke-linejoin:miter;stroke:rgb(0%,0%,0%);stroke-opacity:1;stroke-miterlimit:10;" d="M 209.332031 170.457031 L 208.28125 148.519531 "/>
<path style="fill:none;stroke-width:1.2;stroke-linecap:butt;stroke-linejoin:miter;stroke:rgb(0%,0%,0%);stroke-opacity:1;stroke-miterlimit:10;" d="M 204.0625 168.511719 L 203.222656 150.960938 "/>
<path style="fill:none;stroke-width:1.2;stroke-linecap:butt;stroke-linejoin:miter;stroke:rgb(0%,0%,0%);stroke-opacity:1;stroke-miterlimit:10;" d="M 208.28125 148.519531 L 217.515625 142.578125 "/>
<path style="fill:none;stroke-width:1.2;stroke-linecap:butt;stroke-linejoin:miter;stroke:rgb(0%,0%,100%);stroke-opacity:1;stroke-miterlimit:10;" d="M 217.515625 142.578125 L 226.753906 136.640625 "/>
<path style="fill:none;stroke-width:1.2;stroke-linecap:butt;stroke-linejoin:miter;stroke:rgb(0%,0%,0%);stroke-opacity:1;stroke-miterlimit:10;" d="M 188.753906 138.460938 L 208.28125 148.519531 "/>
<path style="fill:none;stroke-width:1.2;stroke-linecap:butt;stroke-linejoin:miter;stroke:rgb(0%,0%,100%);stroke-opacity:1;stroke-miterlimit:10;" d="M 226.753906 136.640625 L 236.515625 141.667969 "/>
<path style="fill:none;stroke-width:1.2;stroke-linecap:butt;stroke-linejoin:miter;stroke:rgb(0%,0%,0%);stroke-opacity:1;stroke-miterlimit:10;" d="M 236.515625 141.667969 L 246.277344 146.699219 "/>
<path style="fill:none;stroke-width:1.2;stroke-linecap:butt;stroke-linejoin:miter;stroke:rgb(0%,0%,0%);stroke-opacity:1;stroke-miterlimit:10;" d="M 225.703125 114.703125 L 226.226562 125.671875 "/>
<path style="fill:none;stroke-width:1.2;stroke-linecap:butt;stroke-linejoin:miter;stroke:rgb(0%,0%,100%);stroke-opacity:1;stroke-miterlimit:10;" d="M 226.226562 125.671875 L 226.753906 136.640625 "/>
<path style=" stroke:none;fill-rule:nonzero;fill:rgb(100%,100%,100%);fill-opacity:1;" d="M 223.753906 131.140625 L 230.753906 131.140625 L 230.753906 142.140625 L 223.753906 142.140625 Z M 223.753906 131.140625 "/>
<g style="fill:rgb(0%,0%,100%);fill-opacity:1;">
  <use xlink:href="#glyph0-1" x="223.753906" y="139.803711"/>
</g>
<path style="fill:none;stroke-width:1.2;stroke-linecap:butt;stroke-linejoin:miter;stroke:rgb(0%,0%,0%);stroke-opacity:1;stroke-miterlimit:10;" d="M 246.277344 146.699219 L 264.75 134.820312 "/>
<path style="fill:none;stroke-width:1.2;stroke-linecap:butt;stroke-linejoin:miter;stroke:rgb(0%,0%,0%);stroke-opacity:1;stroke-miterlimit:10;" d="M 264.75 134.820312 L 263.699219 112.882812 "/>
<path style="fill:none;stroke-width:1.2;stroke-linecap:butt;stroke-linejoin:miter;stroke:rgb(0%,0%,0%);stroke-opacity:1;stroke-miterlimit:10;" d="M 263.699219 112.882812 L 244.175781 102.824219 "/>
<path style="fill:none;stroke-width:1.2;stroke-linecap:butt;stroke-linejoin:miter;stroke:rgb(0%,0%,0%);stroke-opacity:1;stroke-miterlimit:10;" d="M 244.175781 102.824219 L 225.703125 114.703125 "/>
<path style="fill:none;stroke-width:1.2;stroke-linecap:butt;stroke-linejoin:miter;stroke:rgb(0%,0%,0%);stroke-opacity:1;stroke-miterlimit:10;" d="M 226.886719 112.40625 L 217.121094 107.375 "/>
<path style="fill:none;stroke-width:1.2;stroke-linecap:butt;stroke-linejoin:miter;stroke:rgb(100%,0%,0%);stroke-opacity:1;stroke-miterlimit:10;" d="M 217.121094 107.375 L 207.359375 102.347656 "/>
<path style="fill:none;stroke-width:1.2;stroke-linecap:butt;stroke-linejoin:miter;stroke:rgb(0%,0%,0%);stroke-opacity:1;stroke-miterlimit:10;" d="M 224.519531 117 L 214.757812 111.96875 "/>
<path style="fill:none;stroke-width:1.2;stroke-linecap:butt;stroke-linejoin:miter;stroke:rgb(100%,0%,0%);stroke-opacity:1;stroke-miterlimit:10;" d="M 214.757812 111.96875 L 204.996094 106.941406 "/>
<path style=" stroke:none;fill-rule:nonzero;fill:rgb(100%,100%,100%);fill-opacity:1;" d="M 198.175781 99.144531 L 206.175781 99.144531 L 206.175781 110.144531 L 198.175781 110.144531 Z M 198.175781 99.144531 "/>
<g style="fill:rgb(100%,0%,0%);fill-opacity:1;">
  <use xlink:href="#glyph0-4" x="198.175781" y="107.807617"/>
</g>
<path style="fill:none;stroke-width:1.2;stroke-linecap:butt;stroke-linejoin:miter;stroke:rgb(0%,0%,0%);stroke-opacity:1;stroke-miterlimit:10;" d="M 170.28125 150.339844 L 188.753906 138.460938 "/>
<path style="fill:none;stroke-width:1.2;stroke-linecap:butt;stroke-linejoin:miter;stroke:rgb(0%,0%,0%);stroke-opacity:1;stroke-miterlimit:10;" d="M 174.925781 153.5 L 189.703125 143.996094 "/>
</g>
</svg>

<svg xmlns="http://www.w3.org/2000/svg" xmlns:xlink="http://www.w3.org/1999/xlink" width="300pt" height="300pt" viewBox="0 0 300 300"><defs><symbol overflow="visible"><path d="M.453 1.594v-7.938h4.5v7.938zm.5-.5h3.5v-6.938h-3.5zm0 0"/></symbol><symbol overflow="visible" id="a"><path d="M.89-6.563H2.08l2.906 5.485v-5.484h.86V0H4.656L1.75-5.484V0H.89zm0 0"/></symbol><symbol overflow="visible" id="b"><path d="M5.797-6.063v.938c-.305-.27-.625-.473-.97-.61-.335-.144-.686-.218-1.06-.218-.75 0-1.33.23-1.736.687-.397.46-.592 1.12-.592 1.985 0 .866.195 1.526.593 1.983.408.46.986.688 1.736.688.375 0 .726-.066 1.062-.203.344-.132.664-.343.97-.625V-.5c-.314.21-.642.367-.986.47-.343.1-.714.155-1.11.155-.99 0-1.772-.3-2.343-.906C.784-1.396.5-2.228.5-3.28c0-1.052.285-1.88.86-2.486.57-.613 1.35-.92 2.343-.92.395-.002.766.053 1.11.155.35.104.68.26.984.468zm0 0"/></symbol><symbol overflow="visible" id="c"><path d="M.844-6.844h.812V0H.844zm0 0"/></symbol><symbol overflow="visible" id="d"><path d="M3.547-5.953c-.65 0-1.164.242-1.547.72-.375.48-.563 1.13-.563 1.952 0 .835.188 1.49.563 1.967.383.48.898.72 1.547.72.644 0 1.156-.24 1.53-.72.376-.476.564-1.132.564-1.968 0-.822-.187-1.474-.562-1.954-.375-.477-.887-.72-1.53-.72zm0-.734c.914 0 1.648.312 2.203.937.55.617.828 1.438.828 2.47 0 1.042-.277 1.87-.828 2.483-.555.617-1.29.922-2.203.922-.93 0-1.668-.305-2.22-.922C.774-1.41.5-2.237.5-3.28c0-1.033.273-1.853.828-2.47.55-.625 1.29-.938 2.22-.938zm0 0"/></symbol><symbol overflow="visible" id="e"><path d="M.89-6.563h.876v2.688H5v-2.688h.89V0H5v-3.125H1.766V0H.89zm0 0"/></symbol></defs><g><path fill="#fff" d="M0 0h300v300H0z"/><path d="M114.863 185.977l-1.246 21.93M109.578 187.875l-.996 17.543M114.863 185.977l18.473-11.88" stroke-width="1.2" stroke="#000" stroke-miterlimit="10" fill="none"/><path d="M94.395 178.016l10.234 3.98" stroke-width="1.2" stroke="#00f" stroke-miterlimit="10" fill="none"/><path d="M104.63 181.996l10.233 3.98M113.617 207.906l-21.242 5.59M92.375 213.496l-7.96 20.465M92.375 213.496l-5.938-9.238" stroke-width="1.2" stroke="#000" stroke-miterlimit="10" fill="none"/><path d="M86.438 204.258l-5.942-9.238" stroke-width="1.2" stroke="#00f" stroke-miterlimit="10" fill="none"/><path d="M95.535 208.852l-4.75-7.39" stroke-width="1.2" stroke="#000" stroke-miterlimit="10" fill="none"/><path d="M90.785 201.46l-4.754-7.386M80.496 195.02l13.9-17.004" stroke-width="1.2" stroke="#00f" stroke-miterlimit="10" fill="none"/><path d="M77.496 189.52h7v11h-7zm0 0" fill="#fff"/><use xlink:href="#a" x="77.496" y="198.183" fill="#00f"/><path d="M94.395 178.016l-2.793-10.62" stroke-width="1.2" stroke="#00f" stroke-miterlimit="10" fill="none"/><path d="M91.602 167.395l-2.797-10.622" stroke-width="1.2" stroke="#000" stroke-miterlimit="10" fill="none"/><path d="M91.395 172.516h7v11h-7zm0 0" fill="#fff"/><use xlink:href="#a" x="91.395" y="181.179" fill="#00f"/><path d="M88.805 156.773l15.6-15.457M86.727 151.56l12.48-12.37M67.617 150.996l21.188 5.777M104.406 141.316l-5.59-21.242M98.816 120.074l-21.187-5.777M95.336 124.484l-16.95-4.625M77.63 114.297l-5.59-21.242M77.63 114.297l-15.603 15.46M72.04 93.055l-21.192-5.778M68.56 97.465L51.61 92.84M50.848 87.277l-2.793-10.62" stroke-width="1.2" stroke="#000" stroke-miterlimit="10" fill="none"/><path d="M48.055 76.656L45.262 66.04" stroke-width="1.2" stroke="#0c0" stroke-miterlimit="10" fill="none"/><path d="M50.848 87.277l-15.598 15.46" stroke-width="1.2" stroke="#000" stroke-miterlimit="10" fill="none"/><path d="M40.262 60.54h10v11h-10zm0 0" fill="#fff"/><g fill="#0c0"><use xlink:href="#b" x="40.262" y="69.202"/><use xlink:href="#c" x="46.775" y="69.202"/></g><path d="M35.25 102.738l5.59 21.24M40.805 103.547l4.472 16.992M62.027 129.758l-21.187-5.78M62.027 129.758l5.59 21.238M67.586 130.566l4.47 16.993M135.918 173.977l-.527-10.97" stroke-width="1.2" stroke="#000" stroke-miterlimit="10" fill="none"/><path d="M135.39 163.008l-.523-10.97" stroke-width="1.2" stroke="#f00" stroke-miterlimit="10" fill="none"/><path d="M130.758 174.223l-.528-10.97" stroke-width="1.2" stroke="#000" stroke-miterlimit="10" fill="none"/><path d="M130.23 163.254l-.527-10.97" stroke-width="1.2" stroke="#f00" stroke-miterlimit="10" fill="none"/><path d="M133.336 174.098l9.762 5.03" stroke-width="1.2" stroke="#000" stroke-miterlimit="10" fill="none"/><path d="M143.098 179.13l9.76 5.026" stroke-width="1.2" stroke="#00f" stroke-miterlimit="10" fill="none"/><path d="M128.285 146.66h8v11h-8zm0 0" fill="#fff"/><use xlink:href="#d" x="128.285" y="155.323" fill="#f00"/><path d="M152.86 184.156l9.238-5.937" stroke-width="1.2" stroke="#00f" stroke-miterlimit="10" fill="none"/><path d="M162.098 178.22l9.234-5.943" stroke-width="1.2" stroke="#000" stroke-miterlimit="10" fill="none"/><path d="M145.86 178.656h14v11h-14zm0 0" fill="#fff"/><g fill="#00f"><use xlink:href="#a" x="145.859" y="187.319"/><use xlink:href="#e" x="152.837" y="187.319"/></g><path d="M171.332 172.277l19.527 10.06M175.652 168.69l15.62 8.048M171.332 172.277l-1.05-21.937M190.86 182.336l18.472-11.88M209.332 170.457l-1.05-21.937M204.063 168.512l-.84-17.55M208.28 148.52l9.236-5.942" stroke-width="1.2" stroke="#000" stroke-miterlimit="10" fill="none"/><path d="M217.516 142.578l9.238-5.937" stroke-width="1.2" stroke="#00f" stroke-miterlimit="10" fill="none"/><path d="M188.754 138.46l19.527 10.06" stroke-width="1.2" stroke="#000" stroke-miterlimit="10" fill="none"/><path d="M226.754 136.64l9.762 5.028" stroke-width="1.2" stroke="#00f" stroke-miterlimit="10" fill="none"/><path d="M236.516 141.668l9.76 5.03M225.703 114.703l.524 10.97" stroke-width="1.2" stroke="#000" stroke-miterlimit="10" fill="none"/><path d="M226.227 125.672l.527 10.97" stroke-width="1.2" stroke="#00f" stroke-miterlimit="10" fill="none"/><path d="M223.754 131.14h7v11h-7zm0 0" fill="#fff"/><use xlink:href="#a" x="223.754" y="139.804" fill="#00f"/><path d="M246.277 146.7l18.473-11.88M264.75 134.82l-1.05-21.937M263.7 112.883l-19.524-10.06M244.176 102.824l-18.473 11.88M226.887 112.406l-9.766-5.03" stroke-width="1.2" stroke="#000" stroke-miterlimit="10" fill="none"/><path d="M217.12 107.375l-9.76-5.027" stroke-width="1.2" stroke="#f00" stroke-miterlimit="10" fill="none"/><path d="M224.52 117l-9.762-5.03" stroke-width="1.2" stroke="#000" stroke-miterlimit="10" fill="none"/><path d="M214.758 111.97l-9.762-5.03" stroke-width="1.2" stroke="#f00" stroke-miterlimit="10" fill="none"/><path d="M198.176 99.145h8v11h-8zm0 0" fill="#fff"/><use xlink:href="#d" x="198.176" y="107.808" fill="#f00"/><path d="M170.28 150.34l18.474-11.88M174.926 153.5l14.777-9.504" stroke-width="1.2" stroke="#000" stroke-miterlimit="10" fill="none"/></g></svg>
